austria/municipalities/40412.svg

<?xml version="1.0" encoding="UTF-8"?>
<!DOCTYPE svg PUBLIC "-//W3C//DTD SVG 1.1//EN" "http://www.w3.org/Graphics/SVG/1.1/DTD/svg11.dtd">
<svg xmlns="http://www.w3.org/2000/svg" version="1.1" width="166px" height="207px" style="shape-rendering:geometricPrecision; text-rendering:geometricPrecision; image-rendering:optimizeQuality; fill-rule:evenodd; clip-rule:evenodd" xmlns:xlink="http://www.w3.org/1999/xlink">
<g><path style="opacity:1" fill="#000000" d="M -0.5,-0.5 C 54.8333,-0.5 110.167,-0.5 165.5,-0.5C 165.5,43.5 165.5,87.5 165.5,131.5C 158.067,171.269 134.733,196.269 95.5,206.5C 86.8333,206.5 78.1667,206.5 69.5,206.5C 29.8711,196.203 6.53772,170.87 -0.5,130.5C -0.5,86.8333 -0.5,43.1667 -0.5,-0.5 Z"/></g>
<g><path style="opacity:1" fill="#cb0000" d="M 3.5,3.5 C 56.1667,3.5 108.833,3.5 161.5,3.5C 161.833,40.506 161.5,77.506 160.5,114.5C 152.455,110.803 144.122,109.803 135.5,111.5C 136.222,103.354 135.056,95.3537 132,87.5C 126.485,79.2239 123.985,70.2239 124.5,60.5C 130.179,61.3689 135.846,62.3689 141.5,63.5C 147.342,63.2675 151.342,60.6009 153.5,55.5C 149.818,55.6653 146.152,55.4986 142.5,55C 137.797,53.8242 133.13,52.6575 128.5,51.5C 129.084,44.3989 126.084,39.5655 119.5,37C 111.325,35.3347 104.159,37.168 98,42.5C 97.011,45.4557 96.1777,48.4557 95.5,51.5C 97.4428,58.0525 99.9428,64.3858 103,70.5C 103.497,73.146 103.664,75.8127 103.5,78.5C 89.4588,77.4937 75.4588,76.327 61.5,75C 50.2795,78.6113 39.2795,82.778 28.5,87.5C 29.6651,88.5836 30.9984,89.4169 32.5,90C 29.5931,92.3605 27.4265,91.8605 26,88.5C 25.7879,85.6685 25.6213,83.0018 25.5,80.5C 16.6541,83.6124 15.6541,88.1124 22.5,94C 8.96362,94.7073 8.29696,97.7073 20.5,103C 24.6621,103.526 28.6621,104.526 32.5,106C 34.8364,108.613 37.8364,110.113 41.5,110.5C 42.1279,112.258 43.1279,113.758 44.5,115C 36.4115,113.719 28.2449,112.552 20,111.5C 14.5804,111.79 9.41369,113.123 4.5,115.5C 3.50011,78.1726 3.16677,40.8393 3.5,3.5 Z"/></g>
<g><path style="opacity:1" fill="#fefefe" d="M 124.5,52.5 C 124.932,53.7095 125.599,54.7095 126.5,55.5C 122.06,61.151 116.893,61.8176 111,57.5C 110.552,59.4089 111.385,60.5756 113.5,61C 116.146,61.4974 118.813,61.6641 121.5,61.5C 121.425,65.8967 121.925,70.23 123,74.5C 127.443,82.0514 130.777,90.0514 133,98.5C 133.733,102.972 133.233,107.305 131.5,111.5C 124.158,114.21 116.658,116.21 109,117.5C 101.036,115.907 93.0365,114.574 85,113.5C 80.5426,113.419 76.2092,114.085 72,115.5C 68.9567,115.501 68.79,114.668 71.5,113C 71.1667,112.667 70.8333,112.333 70.5,112C 66.8121,111.81 63.3121,110.976 60,109.5C 57.7621,111.309 56.5954,113.642 56.5,116.5C 50.0994,116.748 45.4328,114.081 42.5,108.5C 40.5767,107.692 38.5767,107.192 36.5,107C 35.6433,106.311 34.9767,105.478 34.5,104.5C 35.9492,103.828 37.2825,103.161 38.5,102.5C 35.4752,102.877 32.4752,103.044 29.5,103C 32.1915,101.395 34.8582,99.8952 37.5,98.5C 33.5264,99.4794 29.5264,100.479 25.5,101.5C 23.4233,101.308 21.4233,100.808 19.5,100C 20.1667,99.6667 20.8333,99.3333 21.5,99C 19.5,98.6667 17.5,98.3333 15.5,98C 23.0244,96.492 30.1911,93.992 37,90.5C 56.9385,97.9589 77.7718,101.459 99.5,101C 106.126,101.041 109.293,97.8748 109,91.5C 105.505,97.171 100.338,100.171 93.5,100.5C 88.1135,99.9353 82.7801,99.1019 77.5,98C 82.1544,96.3378 86.1544,93.6711 89.5,90C 84.9751,91.9185 80.3084,93.9185 75.5,96C 71.8333,96.6667 68.1667,96.6667 64.5,96C 68.5374,94.4631 72.204,92.2964 75.5,89.5C 75.1667,89.1667 74.8333,88.8333 74.5,88.5C 69.4249,91.6962 63.9249,94.0295 58,95.5C 56.1886,94.9221 54.3553,94.4221 52.5,94C 57.8815,92.4758 62.8815,90.1425 67.5,87C 66.1667,86.3333 64.8333,86.3333 63.5,87C 57.5415,91.0822 51.2081,92.0822 44.5,90C 48.8101,88.5116 52.8101,86.5116 56.5,84C 51.7943,83.9462 47.4609,85.2795 43.5,88C 40.8333,88.6667 38.1667,88.6667 35.5,88C 45.2781,82.3686 55.7781,78.5353 67,76.5C 79.3213,79.6817 91.8213,81.1817 104.5,81C 106.457,78.8788 106.957,76.3788 106,73.5C 103.167,65.8333 100.333,58.1667 97.5,50.5C 98.4318,48.2046 99.2652,45.8713 100,43.5C 105.393,38.9728 111.56,37.4728 118.5,39C 123.763,41.027 126.43,44.8603 126.5,50.5C 124.801,50.3398 123.134,50.5065 121.5,51C 122.737,51.2321 123.737,51.7321 124.5,52.5 Z"/></g>
<g><path style="opacity:1" fill="#000000" d="M 112.5,43.5 C 118.488,43.664 119.821,46.164 116.5,51C 110.403,51.1475 109.07,48.6475 112.5,43.5 Z"/></g>
<g><path style="opacity:1" fill="#eeeeee" d="M 112.5,45.5 C 113.833,45.5 115.167,45.5 116.5,45.5C 116.5,46.8333 116.5,48.1667 116.5,49.5C 115.167,49.5 113.833,49.5 112.5,49.5C 112.5,48.1667 112.5,46.8333 112.5,45.5 Z"/></g>
<g><path style="opacity:1" fill="#fe9900" d="M 124.5,52.5 C 132.978,54.9509 141.644,56.4509 150.5,57C 149.226,58.2208 147.726,59.0541 146,59.5C 139.639,57.4678 133.139,56.1344 126.5,55.5C 125.599,54.7095 124.932,53.7095 124.5,52.5 Z"/></g>
<g><path style="opacity:1" fill="#fe9900" d="M 126.5,58.5 C 131.457,57.4606 136.457,57.9606 141.5,60C 136.44,60.2061 131.44,59.7061 126.5,58.5 Z"/></g>
<g><path style="opacity:1" fill="#000000" d="M 122.5,80.5 C 120.727,79.6857 120.227,78.3524 121,76.5C 122.188,77.5634 122.688,78.8967 122.5,80.5 Z"/></g>
<g><path style="opacity:1" fill="#000000" d="M 122.5,80.5 C 125.509,84.9928 127.676,89.9928 129,95.5C 129.874,98.3787 129.54,101.045 128,103.5C 127.667,100.5 127.333,97.5 127,94.5C 125.393,89.8457 123.893,85.179 122.5,80.5 Z"/></g>
<g><path style="opacity:1" fill="#fefffe" d="M 22.5,83.5 C 23.0424,86.6029 24.3757,89.4362 26.5,92C 22.8715,92.2145 20.8715,90.3812 20.5,86.5C 20.9424,85.2613 21.6091,84.2613 22.5,83.5 Z"/></g>
<g><path style="opacity:1" fill="#000000" d="M 34.5,94.5 C 38.2213,94.7926 38.0546,95.4593 34,96.5C 33.5,96.3333 33,96.1667 32.5,96C 33.4158,95.7216 34.0825,95.2216 34.5,94.5 Z"/></g>
<g><path style="opacity:1" fill="#000000" d="M 27.5,96.5 C 29.3474,96.2342 30.014,96.5675 29.5,97.5C 27.9017,98.4847 26.235,98.6514 24.5,98C 25.7375,97.7679 26.7375,97.2679 27.5,96.5 Z"/></g>
<g><path style="opacity:1" fill="#000000" d="M 37.5,98.5 C 38.3143,96.7274 39.6476,96.2274 41.5,97C 40.4366,98.1882 39.1033,98.6882 37.5,98.5 Z"/></g>
<g><path style="opacity:1" fill="#000000" d="M 38.5,102.5 C 41.249,100.64 44.249,99.4734 47.5,99C 44.9278,101.287 41.9278,102.453 38.5,102.5 Z"/></g>
<g><path style="opacity:1" fill="#fe9900" d="M 63.5,119.5 C 62.2101,120.058 61.3768,121.058 61,122.5C 60,125.833 59,129.167 58,132.5C 54.2698,135.394 51.1031,138.728 48.5,142.5C 45.7173,144.067 43.0507,145.9 40.5,148C 39.1667,148.667 37.8333,148.667 36.5,148C 39.7843,146.383 42.4509,144.05 44.5,141C 43.552,140.517 42.552,140.351 41.5,140.5C 41.9175,139.778 42.5842,139.278 43.5,139C 40.8014,139.438 38.1347,139.272 35.5,138.5C 37.4233,137.692 39.4233,137.192 41.5,137C 38.9568,136.86 36.6234,136.194 34.5,135C 41.558,136.046 47.2247,133.879 51.5,128.5C 50.5529,125.551 51.7196,123.551 55,122.5C 56.3061,118.554 58.1394,114.888 60.5,111.5C 63.0698,112.634 65.7365,113.468 68.5,114C 66.6266,115.704 64.9599,117.537 63.5,119.5 Z"/></g>
<g><path style="opacity:1" fill="#003266" d="M 63.5,119.5 C 70.949,117.977 78.449,116.644 86,115.5C 91.2371,116.4 96.4038,117.567 101.5,119C 106.5,119.667 111.5,119.667 116.5,119C 130.159,112.273 144.159,111.273 158.5,116C 160.99,117.128 161.99,119.128 161.5,122C 161.333,123.5 161.167,125 161,126.5C 150.136,122.301 138.969,121.468 127.5,124C 120.156,126.469 112.656,128.302 105,129.5C 91.1286,125.766 77.2952,125.766 63.5,129.5C 62.5,129.167 61.5,128.833 60.5,128.5C 61.9634,125.643 62.9634,122.643 63.5,119.5 Z"/></g>
<g><path style="opacity:1" fill="#003266" d="M 16.5,113.5 C 29.1031,115.588 41.7697,117.255 54.5,118.5C 53.8051,120.978 52.3051,122.978 50,124.5C 49.51,125.793 49.3433,127.127 49.5,128.5C 39.5782,126.463 29.5782,124.796 19.5,123.5C 13.9379,124.224 8.60453,125.557 3.5,127.5C 3.5,124.167 3.5,120.833 3.5,117.5C 8.07189,116.612 12.4052,115.279 16.5,113.5 Z"/></g>
<g><path style="opacity:1" fill="#fefffe" d="M 140.5,124.5 C 147.367,124.858 154.034,126.191 160.5,128.5C 161.553,131.815 161.553,135.148 160.5,138.5C 153.342,137.223 146.175,135.89 139,134.5C 130.34,135.565 121.84,137.399 113.5,140C 103.083,140.741 92.7501,140.241 82.5,138.5C 72.567,140.153 62.567,140.653 52.5,140C 55.3588,137.923 57.6921,135.423 59.5,132.5C 66.9898,131.086 74.4898,129.752 82,128.5C 89.8567,129.308 97.69,130.308 105.5,131.5C 117.235,128.978 128.902,126.644 140.5,124.5 Z"/></g>
<g><path style="opacity:1" fill="#fefffe" d="M 19.5,125.5 C 28.9829,126.684 38.3163,128.517 47.5,131C 42.9174,132.145 38.2508,132.811 33.5,133C 33.0426,133.414 32.7093,133.914 32.5,134.5C 23.4909,134.6 14.8242,136.266 6.5,139.5C 5.91395,139.291 5.41395,138.957 5,138.5C 4.71319,136.109 4.21319,133.776 3.5,131.5C 8.47328,128.268 13.8066,126.268 19.5,125.5 Z"/></g>
<g><path style="opacity:1" fill="#fefffe" d="M -0.5,130.5 C 6.53772,170.87 29.8711,196.203 69.5,206.5C 46.1667,206.5 22.8333,206.5 -0.5,206.5C -0.5,181.167 -0.5,155.833 -0.5,130.5 Z"/></g>
<g><path style="opacity:1" fill="#fefffe" d="M 165.5,131.5 C 165.5,156.5 165.5,181.5 165.5,206.5C 142.167,206.5 118.833,206.5 95.5,206.5C 134.733,196.269 158.067,171.269 165.5,131.5 Z"/></g>
<g><path style="opacity:1" fill="#003266" d="M 22.5,137.5 C 26.247,137.392 29.9137,137.892 33.5,139C 32.2068,139.49 30.8734,139.657 29.5,139.5C 29.3505,140.552 29.5172,141.552 30,142.5C 31.918,143.542 33.7513,144.708 35.5,146C 35.1667,146.333 34.8333,146.667 34.5,147C 25.4894,146.106 16.9894,147.94 9,152.5C 8.13849,149.051 6.97182,145.717 5.5,142.5C 10.9884,139.777 16.6551,138.11 22.5,137.5 Z"/></g>
<g><path style="opacity:1" fill="#003266" d="M 48.5,142.5 C 51.9774,142.96 55.4774,143.293 59,143.5C 66.5081,142.565 74.0081,141.565 81.5,140.5C 89.1797,141.391 96.8463,142.391 104.5,143.5C 115.467,141.342 126.467,139.342 137.5,137.5C 144.754,137.614 151.754,138.947 158.5,141.5C 158.833,142 159.167,142.5 159.5,143C 158.129,145.319 157.462,147.819 157.5,150.5C 151.073,149.27 144.573,148.604 138,148.5C 128.123,149.596 118.289,150.929 108.5,152.5C 98.917,150.92 89.2503,149.586 79.5,148.5C 68.937,150.795 58.2704,151.629 47.5,151C 45.2852,150.83 43.2852,150.163 41.5,149C 44.6797,147.651 47.013,145.484 48.5,142.5 Z"/></g>
<g><path style="opacity:1" fill="#fe9900" d="M 41.5,140.5 C 38.481,142.337 35.1476,142.837 31.5,142C 34.6188,140.595 37.9521,140.095 41.5,140.5 Z"/></g>
<g><path style="opacity:1" fill="#fefffe" d="M 25.5,148.5 C 34.9495,150.635 44.4495,152.635 54,154.5C 62.8408,153.221 71.6742,151.888 80.5,150.5C 90.1916,152.038 99.8583,153.705 109.5,155.5C 119.08,153.355 128.747,151.689 138.5,150.5C 144.311,150.746 149.977,151.746 155.5,153.5C 154.56,156.704 152.893,159.37 150.5,161.5C 146.544,160.671 142.544,160.005 138.5,159.5C 128.042,161.158 117.542,162.492 107,163.5C 98.712,161.962 90.3787,160.628 82,159.5C 72.6414,160.429 63.3081,161.429 54,162.5C 45.4844,161.748 36.9844,160.748 28.5,159.5C 23.5773,159.645 19.0773,160.978 15,163.5C 13.2912,160.582 11.4579,157.748 9.5,155C 14.5723,151.956 19.9056,149.79 25.5,148.5 Z"/></g>
<g><path style="opacity:1" fill="#003266" d="M 79.5,161.5 C 85.6981,161.761 91.6981,162.928 97.5,165C 101.167,165.167 104.833,165.333 108.5,165.5C 118.534,164.759 128.534,163.759 138.5,162.5C 142.616,162.403 146.616,162.903 150.5,164C 148.681,168.149 145.847,171.315 142,173.5C 138.692,172.946 135.359,172.613 132,172.5C 123.672,173.24 115.339,173.907 107,174.5C 97.6436,173.607 88.3103,172.607 79,171.5C 70.4812,172.253 61.9812,173.253 53.5,174.5C 46.6343,173.693 39.8009,172.693 33,171.5C 29.5205,171.452 26.1872,172.119 23,173.5C 19.8458,171.679 17.3458,169.179 15.5,166C 22.7746,162.586 30.4413,161.586 38.5,163C 43.1229,164.921 47.9562,165.755 53,165.5C 62.0299,164.632 70.8633,163.299 79.5,161.5 Z"/></g>
<g><path style="opacity:1" fill="#fefffe" d="M 28.5,173.5 C 36.6491,173.93 44.6491,175.263 52.5,177.5C 61.4579,175.84 70.4579,174.507 79.5,173.5C 88.8377,174.739 98.1711,176.072 107.5,177.5C 116.134,176.237 124.801,175.237 133.5,174.5C 136.259,174.542 138.925,175.042 141.5,176C 138.333,179.167 135.167,182.333 132,185.5C 129.254,184.857 126.421,184.524 123.5,184.5C 114.887,185.99 106.22,186.49 97.5,186C 92.267,184.191 86.9337,182.691 81.5,181.5C 73.3742,183.104 65.2075,184.438 57,185.5C 50.8767,184.341 44.71,183.341 38.5,182.5C 35.8141,183.012 33.1475,183.179 30.5,183C 28.1667,180.667 25.8333,178.333 23.5,176C 25.3146,175.243 26.9812,174.41 28.5,173.5 Z"/></g>
<g><path style="opacity:1" fill="#003266" d="M 38.5,184.5 C 44.5744,186.024 50.7411,187.024 57,187.5C 64.8529,186.696 72.6863,185.696 80.5,184.5C 88.5871,185.751 96.5871,187.418 104.5,189.5C 110.619,188.23 116.786,187.23 123,186.5C 125.051,186.423 126.884,186.923 128.5,188C 110.545,200.82 90.5453,205.487 68.5,202C 55.794,199.609 44.4607,194.442 34.5,186.5C 35.9492,185.828 37.2825,185.161 38.5,184.5 Z"/></g>
</svg>

<svg xmlns="http://www.w3.org/2000/svg" width="166" height="207" style="shape-rendering:geometricPrecision;text-rendering:geometricPrecision;image-rendering:optimizeQuality;fill-rule:evenodd;clip-rule:evenodd"><path style="opacity:1" d="M-.5-.5h166v132c-7.433 39.769-30.767 64.769-70 75h-26c-39.629-10.297-62.962-35.63-70-76V-.5z"/><path style="opacity:1" fill="#cb0000" d="M3.5 3.5h158c.333 37.006 0 74.006-1 111-8.045-3.697-16.378-4.697-25-3 .722-8.146-.444-16.146-3.5-24-5.515-8.276-8.015-17.276-7.5-27a378.383 378.383 0 0 1 17 3c5.842-.233 9.842-2.9 12-8a60.94 60.94 0 0 1-11-.5l-14-3.5c.584-7.101-2.416-11.934-9-14.5-8.175-1.665-15.341.168-21.5 5.5a89.92 89.92 0 0 0-2.5 9 116.37 116.37 0 0 0 7.5 19c.497 2.646.664 5.313.5 8a1813.845 1813.845 0 0 1-42-3.5 347.604 347.604 0 0 0-33 12.5 12.417 12.417 0 0 0 4 2.5c-2.907 2.36-5.073 1.86-6.5-1.5a305.417 305.417 0 0 1-.5-8c-8.846 3.112-9.846 7.612-3 13.5-13.536.707-14.203 3.707-2 9a51.271 51.271 0 0 1 12 3c2.336 2.613 5.336 4.113 9 4.5a10.938 10.938 0 0 0 3 4.5 820.586 820.586 0 0 0-24.5-3.5 40.183 40.183 0 0 0-15.5 4c-1-37.327-1.333-74.66-1-112z"/><path style="opacity:1" fill="#fefefe" d="M124.5 52.5c.432 1.21 1.099 2.21 2 3-4.44 5.651-9.607 6.318-15.5 2-.448 1.909.385 3.076 2.5 3.5 2.646.497 5.313.664 8 .5a49.557 49.557 0 0 0 1.5 13 94.561 94.561 0 0 1 10 24c.733 4.472.233 8.805-1.5 13a124.63 124.63 0 0 1-22.5 6 376.791 376.791 0 0 0-24-4 38.314 38.314 0 0 0-13 2c-3.043.001-3.21-.832-.5-2.5l-1-1a29.272 29.272 0 0 1-10.5-2.5c-2.238 1.809-3.405 4.142-3.5 7-6.4.248-11.067-2.419-14-8a20.204 20.204 0 0 0-6-1.5 7.248 7.248 0 0 1-2-2.5 71.015 71.015 0 0 0 4-2 64.93 64.93 0 0 1-9 .5 177.197 177.197 0 0 1 8-4.5c-3.974.98-7.974 1.979-12 3a20.204 20.204 0 0 1-6-1.5l2-1-6-1A82.347 82.347 0 0 0 37 90.5c19.938 7.459 40.772 10.959 62.5 10.5 6.626.041 9.793-3.125 9.5-9.5-3.495 5.671-8.662 8.671-15.5 9a159.86 159.86 0 0 1-16-2.5c4.654-1.662 8.654-4.329 12-8a2026.866 2026.866 0 0 0-14 6 30.499 30.499 0 0 1-11 0 37.507 37.507 0 0 0 11-6.5l-1-1c-5.075 3.196-10.575 5.53-16.5 7a66.96 66.96 0 0 0-5.5-1.5 51.384 51.384 0 0 0 15-7c-1.333-.667-2.667-.667-4 0-5.959 4.082-12.292 5.082-19 3a50.535 50.535 0 0 0 12-6c-4.706-.054-9.04 1.28-13 4a16.25 16.25 0 0 1-8 0c9.778-5.631 20.278-9.465 31.5-11.5a141.23 141.23 0 0 0 37.5 4.5c1.957-2.121 2.457-4.621 1.5-7.5l-8.5-23a87.301 87.301 0 0 0 2.5-7c5.393-4.527 11.56-6.027 18.5-4.5 5.263 2.027 7.93 5.86 8 11.5a12.935 12.935 0 0 0-5 .5c1.237.232 2.237.732 3 1.5z"/><path style="opacity:1" d="M112.5 43.5c5.988.164 7.321 2.664 4 7.5-6.097.148-7.43-2.352-4-7.5z"/><path style="opacity:1" fill="#eee" d="M112.5 45.5h4v4h-4v-4z"/><path style="opacity:1" fill="#fe9900" d="M124.5 52.5a120.092 120.092 0 0 0 26 4.5 10.017 10.017 0 0 1-4.5 2.5 92.947 92.947 0 0 0-19.5-4c-.901-.79-1.568-1.79-2-3zM126.5 58.5c4.957-1.04 9.957-.54 15 1.5a53.719 53.719 0 0 1-15-1.5z"/><path style="opacity:1" d="M122.5 80.5c-1.773-.814-2.273-2.148-1.5-4 1.188 1.063 1.688 2.397 1.5 4zM122.5 80.5c3.009 4.493 5.176 9.493 6.5 15 .874 2.879.54 5.545-1 8l-1-9a341.192 341.192 0 0 1-4.5-14z"/><path style="opacity:1" fill="#fefffe" d="M22.5 83.5c.542 3.103 1.876 5.936 4 8.5-3.628.215-5.628-1.619-6-5.5.442-1.239 1.11-2.239 2-3z"/><path style="opacity:1" d="M34.5 94.5c3.721.293 3.555.96-.5 2l-1.5-.5c.916-.278 1.583-.778 2-1.5zM27.5 96.5c1.847-.266 2.514.067 2 1-1.598.985-3.265 1.151-5 .5 1.238-.232 2.238-.732 3-1.5zM37.5 98.5c.814-1.773 2.148-2.273 4-1.5-1.063 1.188-2.397 1.688-4 1.5zM38.5 102.5a21.36 21.36 0 0 1 9-3.5c-2.572 2.287-5.572 3.453-9 3.5z"/><path style="opacity:1" fill="#fe9900" d="M63.5 119.5c-1.29.558-2.123 1.558-2.5 3l-3 10c-3.73 2.894-6.897 6.228-9.5 10a55.157 55.157 0 0 0-8 5.5c-1.333.667-2.667.667-4 0 3.284-1.617 5.95-3.95 8-7a4.934 4.934 0 0 0-3-.5c.417-.722 1.084-1.222 2-1.5a17.903 17.903 0 0 1-8-.5 20.204 20.204 0 0 1 6-1.5c-2.543-.14-4.877-.806-7-2 7.058 1.046 12.725-1.121 17-6.5-.947-2.949.22-4.949 3.5-6a42.494 42.494 0 0 1 5.5-11 37.148 37.148 0 0 0 8 2.5 38.44 38.44 0 0 0-5 5.5z"/><path style="opacity:1" fill="#003266" d="M63.5 119.5a445.296 445.296 0 0 1 22.5-4c5.237.9 10.404 2.067 15.5 3.5 5 .667 10 .667 15 0 13.659-6.727 27.659-7.727 42-3 2.49 1.128 3.49 3.128 3 6l-.5 4.5c-10.864-4.199-22.031-5.032-33.5-2.5a136.891 136.891 0 0 1-22.5 5.5c-13.871-3.734-27.705-3.734-41.5 0l-3-1a31.12 31.12 0 0 0 3-9zM16.5 113.5a574.623 574.623 0 0 0 38 5c-.695 2.478-2.195 4.478-4.5 6a8.435 8.435 0 0 0-.5 4 407.65 407.65 0 0 0-30-5c-5.562.724-10.895 2.057-16 4v-10c4.572-.888 8.905-2.221 13-4z"/><path style="opacity:1" fill="#fefffe" d="M140.5 124.5a69.994 69.994 0 0 1 20 4c1.053 3.315 1.053 6.648 0 10a1476.313 1476.313 0 0 1-21.5-4 144.872 144.872 0 0 0-25.5 5.5c-10.417.741-20.75.241-31-1.5a130.638 130.638 0 0 1-30 1.5c2.859-2.077 5.192-4.577 7-7.5a1067.57 1067.57 0 0 1 22.5-4c7.857.808 15.69 1.808 23.5 3a1235.285 1235.285 0 0 1 35-7zM19.5 125.5a203.968 203.968 0 0 1 28 5.5 68.898 68.898 0 0 1-14 2c-.457.414-.79.914-1 1.5-9.01.1-17.676 1.766-26 5a3.646 3.646 0 0 1-1.5-1 38.82 38.82 0 0 0-1.5-7c4.973-3.232 10.307-5.232 16-6z"/><path style="opacity:1" fill="#fefffe" d="M-.5 130.5c7.038 40.37 30.371 65.703 70 76h-70v-76zM165.5 131.5v75h-70c39.233-10.231 62.567-35.231 70-75z"/><path style="opacity:1" fill="#003266" d="M22.5 137.5a33.725 33.725 0 0 1 11 1.5 8.43 8.43 0 0 1-4 .5 4.932 4.932 0 0 0 .5 3 46.996 46.996 0 0 1 5.5 3.5l-1 1c-9.01-.894-17.51.94-25.5 5.5a57.45 57.45 0 0 0-3.5-10c5.488-2.723 11.155-4.39 17-5zM48.5 142.5c3.477.46 6.977.793 10.5 1 7.508-.935 15.008-1.935 22.5-3 7.68.891 15.346 1.891 23 3a1162.097 1162.097 0 0 1 33-6 61.621 61.621 0 0 1 21 4l1 1.5c-1.371 2.319-2.038 4.819-2 7.5a113.06 113.06 0 0 0-19.5-2 612.332 612.332 0 0 0-29.5 4 557.789 557.789 0 0 0-29-4 117.706 117.706 0 0 1-32 2.5c-2.215-.17-4.215-.837-6-2 3.18-1.349 5.513-3.516 7-6.5z"/><path style="opacity:1" fill="#fe9900" d="M41.5 140.5c-3.019 1.837-6.352 2.337-10 1.5 3.119-1.405 6.452-1.905 10-1.5z"/><path style="opacity:1" fill="#fefffe" d="M25.5 148.5a992.104 992.104 0 0 0 28.5 6c8.84-1.279 17.674-2.612 26.5-4a1102.918 1102.918 0 0 1 29 5 297.32 297.32 0 0 1 29-5 64.996 64.996 0 0 1 17 3c-.94 3.204-2.607 5.87-5 8a147.74 147.74 0 0 0-12-2 512.911 512.911 0 0 1-31.5 4 509.803 509.803 0 0 0-25-4c-9.359.929-18.692 1.929-28 3a442.916 442.916 0 0 1-25.5-3c-4.923.145-9.423 1.478-13.5 4a113.383 113.383 0 0 0-5.5-8.5c5.072-3.044 10.406-5.21 16-6.5z"/><path style="opacity:1" fill="#003266" d="M79.5 161.5a60.824 60.824 0 0 1 18 3.5l11 .5a580.34 580.34 0 0 0 30-3 40.398 40.398 0 0 1 12 1.5c-1.819 4.149-4.653 7.315-8.5 9.5a75.928 75.928 0 0 0-10-1c-8.328.74-16.661 1.407-25 2-9.356-.893-18.69-1.893-28-3a444.023 444.023 0 0 0-25.5 3 365.72 365.72 0 0 1-20.5-3 24.041 24.041 0 0 0-10 2c-3.154-1.821-5.654-4.321-7.5-7.5 7.275-3.414 14.941-4.414 23-3 4.623 1.921 9.456 2.755 14.5 2.5a244.66 244.66 0 0 0 26.5-4z"/><path style="opacity:1" fill="#fefffe" d="M28.5 173.5c8.15.43 16.15 1.763 24 4a377.364 377.364 0 0 1 27-4 1415.877 1415.877 0 0 1 28 4 430.93 430.93 0 0 1 26-3c2.759.042 5.425.542 8 1.5l-9.5 9.5a38.555 38.555 0 0 0-8.5-1 114.39 114.39 0 0 1-26 1.5 141.95 141.95 0 0 0-16-4.5 374.895 374.895 0 0 1-24.5 4 357.264 357.264 0 0 0-18.5-3 31.29 31.29 0 0 1-8 .5l-7-7a38.728 38.728 0 0 0 5-2.5z"/><path style="opacity:1" fill="#003266" d="M38.5 184.5a110.238 110.238 0 0 0 18.5 3 475.136 475.136 0 0 0 23.5-3 236.106 236.106 0 0 1 24 5 213.664 213.664 0 0 1 18.5-3c2.051-.077 3.884.423 5.5 1.5-17.955 12.82-37.955 17.487-60 14-12.706-2.391-24.04-7.558-34-15.5a71.015 71.015 0 0 0 4-2z"/></svg>
